client/public/assets/icons/utility/weeklyview.svg

<?xml version="1.0"?><svg xmlns="http://www.w3.org/2000/svg" width="52" height="52" viewBox="0 0 52 52"><path fill="#fff" d="m44 7h-5v-2c0-1.6-1.3-3-3-3-1.6 0-3 1.3-3 3v2h-14v-2c0-1.6-1.3-3-3-3-1.6 0-3 1.3-3 3v2h-5c-2.2 0-4 1.8-4 4v2.5c0 0.8 0.7 1.5 1.5 1.5h41c0.8 0 1.5-0.7 1.5-1.5v-2.5c0-2.2-1.8-4-4-4z m2.5 13h-41c-0.8 0-1.5 0.7-1.5 1.5v24.5c0 2.2 1.8 4 4 4h36c2.2 0 4-1.8 4-4v-24.5c0-0.8-0.7-1.5-1.5-1.5z m-13.7 9.5l-6.3 13.4c-0.3 0.7-1 1.1-1.8 1.1-1.1 0-1.9-0.9-1.9-1.8 0-0.2 0.1-0.5 0.2-0.8l5.3-11.4h-7.6c-0.9 0-1.7-0.6-1.7-1.5 0-0.8 0.8-1.5 1.7-1.5h10.4c1 0 1.9 0.8 1.9 1.8 0 0.3-0.1 0.5-0.2 0.7z"></path></svg>

<?xml version="1.0" encoding="utf-8"?>
<!-- Generator: Adobe Illustrator 18.1.1, SVG Export Plug-In . SVG Version: 6.00 Build 0)  -->
<svg version="1.1" id="Layer_1" xmlns="http://www.w3.org/2000/svg" xmlns:xlink="http://www.w3.org/1999/xlink" x="0px" y="0px"
	 width="52px" height="52px" viewBox="0 0 52 52" enable-background="new 0 0 52 52" xml:space="preserve">
<path fill="#FFFFFF" d="M44,7h-4h-1V5c0-1.6-1.3-3-3-3l0,0c-1.6,0-3,1.3-3,3v2H19V5c0-1.6-1.3-3-3-3l0,0c-1.6,0-3,1.3-3,3v2h-1H8
	c-2.2,0-4,1.8-4,4v2.5C4,14.3,4.7,15,5.5,15h41c0.8,0,1.5-0.7,1.5-1.5V11C48,8.8,46.2,7,44,7z"/>
<path fill="#FFFFFF" d="M46.5,20h-41C4.7,20,4,20.7,4,21.5V46c0,2.2,1.8,4,4,4h36c2.2,0,4-1.8,4-4V21.5C48,20.7,47.3,20,46.5,20z
	 M32.8,29.5l-6.3,13.4c-0.3,0.7-1,1.1-1.8,1.1c-1.1,0-1.9-0.9-1.9-1.8c0-0.2,0.1-0.5,0.2-0.8L28.3,30h-7.6c-0.9,0-1.7-0.6-1.7-1.5
	c0-0.8,0.8-1.5,1.7-1.5h10.4c1,0,1.9,0.8,1.9,1.8C33,29.1,32.9,29.3,32.8,29.5z"/>
</svg>
